X:0792
T:Mr. Hamilton of Wishaw's Reel.
M:C|
L:1/8
Q:1/2=104
I: :: ||
Z:Jack Campin * www.campin.me.uk * 2009
K:D
a|fd d/d/d d2 Ad|efgf     eEEa|fd    d/d/d d2 Ad|cdec dDD:|
f|d/d/d af d'gaf|d/d/d af geef|d/d/d af    d'faf|cdec dDDf|
  d/d/d af d'faf|d/d/d af geea|bgaf        ge`fe|dBAG FDD|]
<end>
<start>
